X: 1
T: Follow Me Down To Carlow
M: 4/4
L: 1/8
R: reel
K: Gmaj
A|:BGAE G2 ED|EAAG (3ABA GE|DEGA BGBd|
|1 egdB c3 A:|2 egdB A2 Bd|
|:~g3a gede|~a3b a2 ge|dega bgag|
|1 gedB A2 Bd:|2 gedB c3 A|
